X:1
T: Oh Tell na Me o' Wind and Rain
C:
R:Jig
Q:180
K:Bb
M:6/8
L:1/16
|:F2|F4F2 F2D2F2|G4F2 F4B2|d4d2 f4d2|c4B2 G4B2|
F4F2 F2D2F2|G4F2 F4B2|d4f2 f4d2|c6B4:|
|:e2|d4c2 f4d2|c4B2 G4e2|d4c2 f4d2|c4B2 B4B2|
F4F2 F2D2F2|G4F2 F4B2|d4d2 f4d2|c6B4F2|
F4F2 F2D2F2|G4F2 F4B2|d4d2 f4d2|c4B2 G4B2|
F4F2 F2D2F2|G4F2 F4B2|d4f2 f4d2|c6B4e2|
d4c2 f4d2|c4B2 G4e2|d4c2 f4d2|c4B2 B4B2|
F4F2 F2D2F2|G4F2 F4B2|d4f2 f4d2|c6B4:|
